; generated by PrusaSlicer 2.3.3+arm64 on 2021-12-02 at 01:49:13 UTC

; 

; external perimeters extrusion width = 0.45mm
; perimeters extrusion width = 0.45mm
; infill extrusion width = 0.45mm
; solid infill extrusion width = 0.45mm
; top infill extrusion width = 0.40mm
; first layer extrusion width = 0.42mm

M73 P0 R115
M73 Q0 S117
M201 X1000 Y1000 Z200 E5000 ; sets maximum accelerations, mm/sec^2
M203 X200 Y200 Z12 E120 ; sets maximum feedrates, mm/sec
M204 P1250 R1250 T1250 ; sets acceleration (P, T) and retract acceleration (R), mm/sec^2
M205 X8.00 Y8.00 Z0.40 E4.50 ; sets the jerk limits, mm/sec
M205 S0 T0 ; sets the minimum extruding and travel feed rate, mm/sec
M107
;TYPE:Custom
M862.3 P "MK3" ; printer model check
M862.1 P0.4 ; nozzle diameter check
M115 U3.10.0 ; tell printer latest fw version
G90 ; use absolute coordinates
M83 ; extruder relative mode
M104 S215 ; set extruder temp
M140 S60 ; set bed temp
M190 S60 ; wait for bed temp
M109 S215 ; wait for extruder temp
G28 W ; home all without mesh bed level
G80 ; mesh bed leveling
G1 Y-3.0 F1000.0 ; go outside print area
G92 E0.0
G1 X60.0 E9.0 F1000.0 ; intro line
G1 X100.0 E12.5 F1000.0 ; intro line
G92 E0.0
M221 S95

; Don't change E values below. Excessive value can damage the printer.

M907 E538 ; set extruder motor current
G21 ; set units to millimeters
G90 ; use absolute coordinates
M83 ; use relative distances for extrusion
M900 K0.05 ; Filament gcode LA 1.5
M900 K30 ; Filament gcode LA 1.0
;LAYER_CHANGE
;Z:0.2
;HEIGHT:0.2
;BEFORE_LAYER_CHANGE
G92 E0.0
;0.2


G1 E-0.80000 F2100.000
G1 Z0.400 F10800.000
;AFTER_LAYER_CHANGE
;0.2
G1 X45.535 Y36.436
G1 Z0.200
G1 E0.80000 F2100.000
M204 S1000
;TYPE:Skirt
;WIDTH:0.42
G1 F1200.000
G1 X46.151 Y35.742 E0.02907
G1 X46.828 Y35.384 E0.02402
G1 X47.580 Y35.260 E0.02390
G1 X212.690 Y35.260 E5.17690
M73 P0 R114
G1 X213.578 Y35.434 E0.02837
G1 X214.340 Y35.929 E0.02849
G1 X214.858 Y36.671 E0.02837
G1 X215.062 Y37.556 E0.02849
G1 X215.063 Y75.794 E1.19893
G1 X214.990 Y76.322 E0.01668
G1 X214.803 Y76.819 E0.01668
G1 X214.509 Y77.263 E0.01668
G1 X214.121 Y77.633 E0.01680
G1 X66.695 Y171.494 E5.47977
M73 Q0 S116
G1 X64.709 Y172.623 E0.07163
G1 X63.580 Y173.147 E0.03900
G1 X61.485 Y173.912 E0.06995
G1 X59.311 Y174.436 E0.07012
G1 X58.104 Y174.615 E0.03824
G1 X56.879 Y174.716 E0.03855
G1 X54.640 Y174.696 E0.07019
G1 X53.415 Y174.571 E0.03863
G1 X51.210 Y174.145 E0.07041
G1 X49.056 Y173.462 E0.07083
G1 X47.880 Y172.974 E0.03993
G1 X46.757 Y172.421 E0.03925
G1 X44.779 Y171.229 E0.07241
G1 X43.755 Y170.485 E0.03969
G1 X41.981 Y168.959 E0.07337
G1 X40.397 Y167.269 E0.07262
G1 X39.577 Y166.241 E0.04124
G1 X38.836 Y165.189 E0.04034
G1 X37.649 Y163.186 E0.07299
G1 X36.576 Y160.837 E0.08098
G1 X35.834 Y158.619 E0.07334
G1 X35.515 Y157.354 E0.04088
G1 X35.270 Y156.087 E0.04048
G1 X34.992 Y153.731 E0.07438
G1 X34.942 Y151.302 E0.07617
G1 X35.283 Y113.338 E1.19039
G1 X35.384 Y112.089 E0.03927
G1 X45.232 Y37.308 E2.36496
G1 X45.516 Y36.492 E0.02707
; printing object AMS_Bookmark v4.stl id:0 copy 0
;WIPE_START
G1 F8640.000
G1 X46.151 Y35.742 E-0.22697
G1 X46.828 Y35.384 E-0.17689
G1 X47.580 Y35.260 E-0.17602
G1 X48.360 Y35.260 E-0.18013
;WIPE_END
G1 E-0.04000 F2100.000
G1 Z0.600 F10800.000
G1 X59.441 Y121.943
G1 Z0.200
G1 E0.80000 F2100.000
;TYPE:Perimeter
G1 F1200.000
G1 X60.665 Y121.838 E0.03853
G1 X61.935 Y121.872 E0.03984
G1 X63.173 Y122.050 E0.03921
G1 X64.382 Y122.368 E0.03919
G1 X65.547 Y122.821 E0.03919
G1 X65.929 Y123.023 E0.01354
G1 X66.653 Y123.404 E0.02566
G1 X67.685 Y124.110 E0.03919
G1 X68.629 Y124.929 E0.03919
G1 X69.475 Y125.850 E0.03919
G1 X70.209 Y126.861 E0.03919
G1 X70.824 Y127.949 E0.03919
G1 X71.311 Y129.101 E0.03919
G1 X71.663 Y130.300 E0.03919
G1 X71.876 Y131.532 E0.03919
G1 X71.947 Y132.780 E0.03919
G1 X71.876 Y134.028 E0.03919
G1 X71.663 Y135.260 E0.03919
G1 X71.311 Y136.459 E0.03919
G1 X70.824 Y137.611 E0.03919
G1 X70.209 Y138.699 E0.03919
G1 X69.475 Y139.710 E0.03919
G1 X68.629 Y140.631 E0.03919
G1 X67.685 Y141.450 E0.03919
G1 X66.653 Y142.156 E0.03919
G1 X65.547 Y142.739 E0.03919
G1 X64.382 Y143.193 E0.03919
G1 X63.173 Y143.510 E0.03919
G1 X61.936 Y143.688 E0.03919
G1 X60.686 Y143.724 E0.03919
G1 X59.441 Y143.617 E0.03919
G1 X58.216 Y143.369 E0.03919
G1 X57.027 Y142.982 E0.03919
G1 X55.890 Y142.463 E0.03919
G1 X54.819 Y141.818 E0.03919
G1 X53.829 Y141.054 E0.03919
G1 X52.933 Y140.183 E0.03920
G1 X52.142 Y139.215 E0.03919
G1 X51.466 Y138.164 E0.03919
G1 X50.923 Y137.061 E0.03853
G1 X50.494 Y135.865 E0.03984
G1 X50.211 Y134.647 E0.03921
G1 X50.068 Y133.405 E0.03919
G1 X50.068 Y132.155 E0.03919
G1 X50.211 Y130.913 E0.03919
G1 X50.494 Y129.696 E0.03919
G1 X50.914 Y128.518 E0.03919
G1 X51.466 Y127.396 E0.03919
G1 X52.142 Y126.345 E0.03919
G1 X52.933 Y125.377 E0.03919
G1 X53.829 Y124.506 E0.03919
G1 X54.819 Y123.742 E0.03919
G1 X55.890 Y123.097 E0.03919
G1 X57.027 Y122.578 E0.03919
G1 X58.216 Y122.191 E0.03919
G1 X59.382 Y121.955 E0.03731
G1 X59.457 Y122.325 F10800.000
;TYPE:External perimeter
G1 F1200.000
G1 X60.676 Y122.215 E0.03839
G1 X61.903 Y122.248 E0.03848
G1 X63.098 Y122.420 E0.03785
G1 X64.265 Y122.727 E0.03784
G1 X65.390 Y123.165 E0.03784
G1 X66.458 Y123.728 E0.03784
G1 X67.454 Y124.409 E0.03784
G1 X68.366 Y125.199 E0.03784
G1 X69.182 Y126.089 E0.03784
G1 X69.892 Y127.065 E0.03784
G1 X70.485 Y128.116 E0.03784
G1 X70.955 Y129.228 E0.03784
G1 X71.295 Y130.386 E0.03784
G1 X71.501 Y131.575 E0.03784
G1 X71.570 Y132.780 E0.03784
G1 X71.501 Y133.985 E0.03784
G1 X71.295 Y135.174 E0.03784
G1 X70.955 Y136.332 E0.03784
G1 X70.485 Y137.444 E0.03784
G1 X69.892 Y138.495 E0.03784
G1 X69.182 Y139.471 E0.03784
G1 X68.366 Y140.361 E0.03784
G1 X67.454 Y141.151 E0.03784
G1 X66.458 Y141.832 E0.03784
G1 X65.390 Y142.395 E0.03784
G1 X64.265 Y142.833 E0.03784
G1 X63.098 Y143.140 E0.03784
G1 X61.904 Y143.312 E0.03784
G1 X60.697 Y143.346 E0.03784
G1 X59.495 Y143.243 E0.03784
G1 X58.312 Y143.003 E0.03784
G1 X57.164 Y142.630 E0.03784
G1 X56.066 Y142.129 E0.03784
G1 X55.032 Y141.506 E0.03784
G1 X54.077 Y140.769 E0.03784
G1 X53.211 Y139.928 E0.03784
G1 X52.447 Y138.993 E0.03784
G1 X51.795 Y137.978 E0.03784
G1 X51.271 Y136.914 E0.03719
G1 X50.856 Y135.758 E0.03848
G1 X50.583 Y134.583 E0.03785
G1 X50.445 Y133.384 E0.03784
G1 X50.445 Y132.177 E0.03784
G1 X50.583 Y130.978 E0.03784
G1 X50.856 Y129.802 E0.03784
G1 X51.262 Y128.665 E0.03784
G1 X51.795 Y127.582 E0.03784
G1 X52.447 Y126.567 E0.03784
G1 X53.211 Y125.632 E0.03784
G1 X54.077 Y124.791 E0.03784
G1 X55.032 Y124.054 E0.03784
G1 X56.066 Y123.431 E0.03784
G1 X57.164 Y122.930 E0.03784
G1 X58.312 Y122.557 E0.03784
G1 X59.398 Y122.337 E0.03476
G1 X59.605 Y121.953 F10800.000
;WIPE_START
G1 F8640.000
G1 X60.676 Y122.215 E-0.29648
G1 X61.903 Y122.248 E-0.28340
G1 X62.675 Y122.359 E-0.18012
;WIPE_END
G1 E-0.04000 F2100.000
G1 Z0.600 F10800.000
G1 X45.559 Y132.865
G1 Z0.200
G1 E0.80000 F2100.000
;TYPE:Perimeter
G1 F1200.000
G1 X45.254 Y132.268 E0.02101
G1 X43.913 Y130.293 E0.07488
G1 X42.900 Y128.695 E0.05934
G1 X42.137 Y127.381 E0.04761
G1 X41.347 Y125.881 E0.05317
G1 X40.958 Y125.074 E0.02809
G1 X40.578 Y124.226 E0.02911
G1 X40.214 Y123.346 E0.02988
G1 X39.871 Y122.435 E0.03052
G1 X39.554 Y121.498 E0.03102
G1 X39.268 Y120.538 E0.03140
G1 X39.017 Y119.559 E0.03168
G1 X38.806 Y118.565 E0.03186
G1 X38.638 Y117.560 E0.03197
G1 X38.515 Y116.546 E0.03201
G1 X38.441 Y115.528 E0.03201
G1 X38.416 Y114.509 E0.03197
G1 X38.444 Y113.492 E0.03190
G1 X38.524 Y112.480 E0.03182
G1 X38.657 Y111.477 E0.03172
G1 X38.845 Y110.486 E0.03163
G1 X39.086 Y109.510 E0.03153
G1 X39.382 Y108.551 E0.03145
G1 X39.730 Y107.613 E0.03137
G1 X40.131 Y106.699 E0.03131
G1 X40.583 Y105.810 E0.03125
G1 X41.084 Y104.951 E0.03121
G1 X41.634 Y104.122 E0.03118
G1 X42.231 Y103.327 E0.03115
G1 X42.871 Y102.568 E0.03114
G1 X43.554 Y101.848 E0.03112
G1 X44.276 Y101.168 E0.03111
G1 X45.036 Y100.531 E0.03109
G1 X45.830 Y99.938 E0.03107
G1 X46.655 Y99.391 E0.03105
G1 X47.509 Y98.892 E0.03102
G1 X48.389 Y98.442 E0.03098
G1 X49.291 Y98.043 E0.03093
G1 X50.213 Y97.695 E0.03088
G1 X51.151 Y97.401 E0.03083
G1 X52.102 Y97.159 E0.03076
G1 X53.063 Y96.972 E0.03070
G1 X54.031 Y96.839 E0.03063
G1 X55.002 Y96.760 E0.03057
G1 X55.975 Y96.736 E0.03051
G1 X56.946 Y96.766 E0.03046
G1 X57.913 Y96.850 E0.03042
G1 X58.873 Y96.988 E0.03040
G1 X59.823 Y97.178 E0.03039
G1 X60.762 Y97.419 E0.03040
G1 X61.688 Y97.711 E0.03043
G1 X62.598 Y98.051 E0.03047
G1 X63.491 Y98.439 E0.03052
G1 X64.364 Y98.874 E0.03059
G1 X65.217 Y99.352 E0.03066
G1 X66.048 Y99.872 E0.03073
G1 X66.855 Y100.432 E0.03081
G1 X67.638 Y101.031 E0.03088
G1 X68.394 Y101.665 E0.03094
G1 X69.123 Y102.332 E0.03099
G1 X69.824 Y103.030 E0.03102
G1 X70.497 Y103.756 E0.03103
G1 X71.140 Y104.508 E0.03102
G1 X71.753 Y105.283 E0.03098
G1 X72.337 Y106.077 E0.03091
G1 X72.889 Y106.890 E0.03081
G1 X73.412 Y107.717 E0.03067
G1 X73.901 Y108.551 E0.03031
G1 X74.798 Y110.259 E0.06050
G1 X75.575 Y111.977 E0.05912
G1 X76.242 Y113.689 E0.05762
G1 X76.806 Y115.377 E0.05580
G1 X77.279 Y117.023 E0.05368
G1 X77.673 Y118.611 E0.05132
G1 X78.005 Y120.130 E0.04875
G1 X78.814 Y124.197 E0.13002
G1 X79.094 Y125.382 E0.03818
G1 X79.412 Y126.480 E0.03583
G1 X79.789 Y127.492 E0.03385
G1 X80.236 Y128.417 E0.03222
G1 X80.757 Y129.254 E0.03091
G1 X81.346 Y129.999 E0.02979
G1 X81.982 Y130.656 E0.02865
G1 X82.635 Y131.229 E0.02726
G1 X83.812 Y132.154 E0.04692
G1 X84.236 Y132.515 E0.01748
G1 X84.486 Y132.791 E0.01166
G1 X84.524 Y132.858 E0.00242
G1 X84.476 Y132.941 E0.00300
G1 X84.214 Y133.227 E0.01215
G1 X83.782 Y133.594 E0.01780
G1 X82.603 Y134.518 E0.04696
G1 X81.954 Y135.084 E0.02699
G1 X81.324 Y135.728 E0.02825
G1 X80.742 Y136.457 E0.02926
G1 X80.228 Y137.276 E0.03029
G1 X79.791 Y138.183 E0.03158
G1 X79.426 Y139.179 E0.03326
G1 X79.121 Y140.266 E0.03538
G1 X78.856 Y141.448 E0.03799
G1 X78.099 Y145.581 E0.13175
G1 X77.789 Y147.157 E0.05036
G1 X77.419 Y148.821 E0.05344
G1 X76.973 Y150.561 E0.05631
G1 X76.439 Y152.361 E0.05886
G1 X75.807 Y154.202 E0.06105
G1 X75.066 Y156.064 E0.06283
G1 X74.212 Y157.924 E0.06417
G1 X73.237 Y159.763 E0.06526
G1 X72.709 Y160.657 E0.03255
G1 X72.149 Y161.540 E0.03280
G1 X71.558 Y162.404 E0.03281
G1 X70.938 Y163.245 E0.03278
G1 X70.289 Y164.062 E0.03270
G1 X69.611 Y164.850 E0.03259
G1 X68.906 Y165.607 E0.03244
G1 X68.174 Y166.330 E0.03226
G1 X67.415 Y167.016 E0.03206
G1 X66.632 Y167.662 E0.03184
G1 X65.825 Y168.266 E0.03161
G1 X64.995 Y168.826 E0.03138
G1 X64.144 Y169.339 E0.03114
G1 X63.274 Y169.803 E0.03092
G1 X62.386 Y170.216 E0.03072
G1 X61.482 Y170.578 E0.03053
G1 X60.563 Y170.885 E0.03038
G1 X59.632 Y171.137 E0.03026
G1 X58.689 Y171.333 E0.03017
G1 X57.738 Y171.472 E0.03013
G1 X56.781 Y171.553 E0.03012
G1 X55.820 Y171.575 E0.03016
G1 X54.856 Y171.539 E0.03023
G1 X53.894 Y171.443 E0.03033
G1 X52.934 Y171.289 E0.03046
G1 X51.981 Y171.076 E0.03062
G1 X51.037 Y170.805 E0.03079
G1 X50.105 Y170.477 E0.03098
G1 X49.188 Y170.092 E0.03118
G1 X48.290 Y169.652 E0.03138
G1 X47.412 Y169.158 E0.03158
G1 X46.558 Y168.612 E0.03178
G1 X45.732 Y168.014 E0.03198
G1 X44.935 Y167.368 E0.03216
G1 X44.171 Y166.675 E0.03234
G1 X43.443 Y165.937 E0.03251
G1 X42.753 Y165.156 E0.03266
G1 X42.104 Y164.336 E0.03280
G1 X41.498 Y163.478 E0.03294
G1 X40.936 Y162.586 E0.03306
G1 X40.422 Y161.661 E0.03316
G1 X39.956 Y160.708 E0.03326
G1 X39.540 Y159.729 E0.03335
G1 X39.176 Y158.727 E0.03343
G1 X38.864 Y157.705 E0.03350
G1 X38.604 Y156.667 E0.03356
G1 X38.399 Y155.615 E0.03360
G1 X38.246 Y154.553 E0.03364
G1 X38.147 Y153.484 E0.03365
G1 X38.101 Y152.412 E0.03365
G1 X38.106 Y151.340 E0.03362
G1 X38.162 Y150.271 E0.03356
G1 X38.266 Y149.209 E0.03346
G1 X38.417 Y148.157 E0.03332
G1 X38.612 Y147.119 E0.03312
G1 X38.848 Y146.097 E0.03286
G1 X39.122 Y145.097 E0.03253
G1 X39.429 Y144.120 E0.03210
G1 X39.764 Y143.171 E0.03158
G1 X40.125 Y142.252 E0.03094
G1 X40.504 Y141.367 E0.03018
G1 X40.897 Y140.520 E0.02929
G1 X41.297 Y139.716 E0.02817
G1 X42.106 Y138.226 E0.05316
G1 X42.497 Y137.559 E0.02424
G1 X43.244 Y136.362 E0.04425
G1 X43.901 Y135.374 E0.03719
G1 X45.143 Y133.610 E0.06765
G1 X45.320 Y133.339 E0.01015
G1 X45.532 Y132.918 E0.01476
G1 X45.137 Y132.866 F10800.000
;TYPE:External perimeter
G1 F1200.000
G1 X44.929 Y132.461 E0.01427
G1 X43.597 Y130.500 E0.07433
G1 X42.577 Y128.890 E0.05975
G1 X41.807 Y127.564 E0.04808
G1 X41.010 Y126.051 E0.05363
G1 X40.616 Y125.233 E0.02846
G1 X40.232 Y124.376 E0.02944
G1 X39.863 Y123.484 E0.03025
G1 X39.516 Y122.562 E0.03091
G1 X39.195 Y121.612 E0.03144
G1 X38.904 Y120.639 E0.03185
G1 X38.650 Y119.645 E0.03215
G1 X38.436 Y118.636 E0.03236
G1 X38.264 Y117.614 E0.03249
G1 X38.140 Y116.583 E0.03256
G1 X38.064 Y115.546 E0.03258
G1 X38.039 Y114.508 E0.03256
G1 X38.067 Y113.472 E0.03251
G1 X38.149 Y112.440 E0.03244
G1 X38.285 Y111.417 E0.03236
G1 X38.476 Y110.406 E0.03228
G1 X38.723 Y109.409 E0.03220
G1 X39.025 Y108.430 E0.03212
G1 X39.380 Y107.472 E0.03205
G1 X39.790 Y106.538 E0.03199
G1 X40.252 Y105.630 E0.03194
G1 X40.764 Y104.751 E0.03189
G1 X41.326 Y103.904 E0.03186
G1 X41.935 Y103.092 E0.03184
G1 X42.590 Y102.317 E0.03181
G1 X43.288 Y101.581 E0.03180
G1 X44.026 Y100.886 E0.03178
G1 X44.802 Y100.235 E0.03176
G1 X45.613 Y99.629 E0.03174
G1 X46.456 Y99.071 E0.03171
G1 X47.328 Y98.561 E0.03168
G1 X48.227 Y98.101 E0.03164
G1 X49.149 Y97.694 E0.03160
G1 X50.090 Y97.339 E0.03154
G1 X51.048 Y97.038 E0.03149
G1 X52.019 Y96.791 E0.03142
G1 X53.001 Y96.600 E0.03136
G1 X53.990 Y96.464 E0.03129
G1 X54.982 Y96.383 E0.03123
G1 X55.976 Y96.359 E0.03117
G1 X56.968 Y96.390 E0.03112
G1 X57.956 Y96.476 E0.03108
G1 X58.936 Y96.616 E0.03105
G1 X59.907 Y96.810 E0.03104
G1 X60.866 Y97.056 E0.03104
G1 X61.811 Y97.354 E0.03106
G1 X62.739 Y97.702 E0.03109
G1 X63.650 Y98.097 E0.03113
G1 X64.541 Y98.540 E0.03118
G1 X65.410 Y99.027 E0.03124
G1 X66.256 Y99.557 E0.03130
G1 X67.078 Y100.128 E0.03136
G1 X67.873 Y100.736 E0.03142
G1 X68.642 Y101.381 E0.03146
G1 X69.383 Y102.059 E0.03150
G1 X70.096 Y102.768 E0.03151
G1 X70.779 Y103.505 E0.03151
G1 X71.431 Y104.268 E0.03148
G1 X72.053 Y105.054 E0.03142
G1 X72.645 Y105.860 E0.03134
G1 X73.205 Y106.683 E0.03122
G1 X73.734 Y107.521 E0.03107
G1 X74.230 Y108.368 E0.03078
G1 X75.137 Y110.094 E0.06113
G1 X75.923 Y111.831 E0.05978
G1 X76.596 Y113.561 E0.05822
G1 X77.166 Y115.265 E0.05634
G1 X77.643 Y116.925 E0.05415
G1 X78.040 Y118.525 E0.05170
G1 X78.374 Y120.053 E0.04903
G1 X79.183 Y124.117 E0.12993
G1 X79.458 Y125.287 E0.03767
G1 X79.771 Y126.361 E0.03510
G1 X80.136 Y127.344 E0.03286
G1 X80.566 Y128.235 E0.03103
G1 X81.066 Y129.037 E0.02962
G1 X81.630 Y129.751 E0.02853
G1 X82.242 Y130.382 E0.02758
G1 X82.876 Y130.939 E0.02646
G1 X84.051 Y131.862 E0.04683
G1 X84.500 Y132.244 E0.01849
G1 X84.790 Y132.565 E0.01357
G1 X84.862 Y132.685 E0.00440
G1 X84.907 Y132.862 E0.00573
G1 X84.856 Y133.045 E0.00596
G1 X84.777 Y133.170 E0.00462
G1 X84.476 Y133.499 E0.01398
G1 X84.020 Y133.886 E0.01876
G1 X82.843 Y134.809 E0.04688
G1 X82.213 Y135.359 E0.02622
G1 X81.606 Y135.978 E0.02718
G1 X81.050 Y136.676 E0.02798
G1 X80.559 Y137.458 E0.02896
G1 X80.139 Y138.330 E0.03035
G1 X79.785 Y139.295 E0.03223
G1 X79.487 Y140.358 E0.03461
G1 X79.226 Y141.523 E0.03744
G1 X78.470 Y145.652 E0.13159
G1 X78.158 Y147.235 E0.05059
G1 X77.785 Y148.909 E0.05377
G1 X77.337 Y150.661 E0.05672
G1 X76.799 Y152.476 E0.05934
G1 X76.160 Y154.333 E0.06158
G1 X75.413 Y156.212 E0.06342
G1 X74.550 Y158.091 E0.06481
G1 X73.566 Y159.947 E0.06587
G1 X73.031 Y160.854 E0.03301
G1 X72.464 Y161.747 E0.03319
G1 X71.866 Y162.622 E0.03322
G1 X71.238 Y163.475 E0.03321
G1 X70.580 Y164.302 E0.03315
G1 X69.892 Y165.102 E0.03305
G1 X69.176 Y165.870 E0.03293
G1 X68.433 Y166.604 E0.03277
G1 X67.662 Y167.301 E0.03259
G1 X66.865 Y167.958 E0.03239
G1 X66.043 Y168.573 E0.03218
G1 X65.198 Y169.144 E0.03197
G1 X64.331 Y169.667 E0.03176
G1 X63.443 Y170.140 E0.03155
G1 X62.536 Y170.563 E0.03137
G1 X61.612 Y170.932 E0.03120
G1 X60.672 Y171.246 E0.03106
G1 X59.719 Y171.504 E0.03095
G1 X58.755 Y171.705 E0.03088
G1 X57.782 Y171.847 E0.03084
G1 X56.801 Y171.930 E0.03084
G1 X55.817 Y171.953 E0.03088
G1 X54.830 Y171.915 E0.03095
