; generated by PrusaSlicer 2.3.3+arm64 on 2021-11-04 at 20:09:31 UTC

; 

; external perimeters extrusion width = 0.45mm
; perimeters extrusion width = 0.45mm
; infill extrusion width = 0.45mm
; solid infill extrusion width = 0.45mm
; top infill extrusion width = 0.40mm
; first layer extrusion width = 0.42mm

M73 P0 R154
M73 Q0 S159
M201 X1000 Y1000 Z200 E5000 ; sets maximum accelerations, mm/sec^2
M203 X200 Y200 Z12 E120 ; sets maximum feedrates, mm/sec
M204 P1250 R1250 T1250 ; sets acceleration (P, T) and retract acceleration (R), mm/sec^2
M205 X8.00 Y8.00 Z0.40 E4.50 ; sets the jerk limits, mm/sec
M205 S0 T0 ; sets the minimum extruding and travel feed rate, mm/sec
M107
;TYPE:Custom
M862.3 P "MK3" ; printer model check
M862.1 P0.4 ; nozzle diameter check
M115 U3.10.0 ; tell printer latest fw version
G90 ; use absolute coordinates
M83 ; extruder relative mode
M104 S215 ; set extruder temp
M140 S60 ; set bed temp
M190 S60 ; wait for bed temp
M109 S215 ; wait for extruder temp
G28 W ; home all without mesh bed level
G80 ; mesh bed leveling
G1 Y-3.0 F1000.0 ; go outside print area
G92 E0.0
G1 X60.0 E9.0 F1000.0 ; intro line
M73 Q0 S158
G1 X100.0 E12.5 F1000.0 ; intro line
G92 E0.0
M221 S95

; Don't change E values below. Excessive value can damage the printer.

M907 E538 ; set extruder motor current
G21 ; set units to millimeters
G90 ; use absolute coordinates
M83 ; use relative distances for extrusion
M900 K0.05 ; Filament gcode LA 1.5
M900 K30 ; Filament gcode LA 1.0
;LAYER_CHANGE
;Z:0.2
;HEIGHT:0.2
;BEFORE_LAYER_CHANGE
G92 E0.0
;0.2


G1 E-0.80000 F2100.000
G1 Z0.400 F10800.000
;AFTER_LAYER_CHANGE
;0.2
G1 X45.983 Y69.731
G1 Z0.200
G1 E0.80000 F2100.000
M204 S1000
;TYPE:Skirt
;WIDTH:0.42
G1 F1200.000
G1 X48.153 Y69.069 E0.07115
G1 X50.110 Y68.715 E0.06236
G1 X52.211 Y68.587 E0.06599
G1 X197.775 Y68.587 E4.56405
M73 P0 R153
G1 X199.888 Y68.715 E0.06638
G1 X201.847 Y69.069 E0.06241
G1 X204.019 Y69.732 E0.07122
G1 X205.952 Y70.602 E0.06646
G1 X207.658 Y71.627 E0.06241
G1 X209.457 Y73.021 E0.07134
G1 X210.953 Y74.517 E0.06635
G1 X212.184 Y76.081 E0.06241
G1 X213.372 Y78.021 E0.07134
G1 X214.241 Y79.951 E0.06635
G1 X214.840 Y81.857 E0.06264
G1 X215.268 Y84.161 E0.07348
G1 X215.388 Y86.197 E0.06396
G1 X215.388 Y123.815 E1.17947
G1 X215.260 Y125.913 E0.06590
G1 X214.899 Y127.909 E0.06360
G1 X214.247 Y130.033 E0.06968
G1 X213.375 Y131.974 E0.06670
G1 X212.271 Y133.801 E0.06694
G1 X210.962 Y135.473 E0.06658
G1 X209.452 Y136.983 E0.06694
G1 X207.778 Y138.295 E0.06670
G1 X205.957 Y139.396 E0.06670
G1 X204.017 Y140.269 E0.06670
G1 X201.847 Y140.931 E0.07115
G1 X199.890 Y141.285 E0.06236
G1 X197.789 Y141.413 E0.06599
G1 X52.229 Y141.413 E4.56393
G1 X50.248 Y141.298 E0.06220
G1 X48.023 Y140.904 E0.07087
G1 X45.981 Y140.268 E0.06706
G1 X44.034 Y139.391 E0.06694
G1 X42.113 Y138.215 E0.07063
G1 X40.442 Y136.884 E0.06698
G1 X39.042 Y135.477 E0.06224
G1 X37.811 Y133.913 E0.06241
G1 X36.635 Y131.992 E0.07063
G1 X35.756 Y130.042 E0.06706
G1 X35.095 Y127.877 E0.07099
G1 X34.740 Y125.915 E0.06253
G1 X34.612 Y123.848 E0.06491
G1 X34.612 Y86.196 E1.18055
G1 X34.756 Y83.970 E0.06995
G1 X35.128 Y81.972 E0.06372
G1 X35.812 Y79.824 E0.07067
G1 X36.630 Y78.016 E0.06224
G1 X37.652 Y76.317 E0.06217
G1 X38.955 Y74.626 E0.06693
G1 X40.539 Y73.024 E0.07063
G1 X42.213 Y71.711 E0.06670
G1 X44.043 Y70.604 E0.06706
G1 X45.928 Y69.756 E0.06482
; printing object AMS_AcrylicSignShellBase v1.stl id:0 copy 0
;WIPE_START
G1 F8640.000
G1 X48.153 Y69.069 E-0.53773
G1 X49.101 Y68.897 E-0.22227
;WIPE_END
G1 E-0.04000 F2100.000
G1 Z0.600 F10800.000
G1 X47.104 Y72.692
G1 Z0.200
G1 E0.80000 F2100.000
;TYPE:Perimeter
G1 F1200.000
G1 X48.771 Y72.172 E0.05472
G1 X50.487 Y71.858 E0.05472
G1 X52.253 Y71.751 E0.05546
G1 X197.756 Y71.752 E4.56214
G1 X199.513 Y71.858 E0.05520
G1 X201.229 Y72.172 E0.05472
G1 X202.896 Y72.692 E0.05472
G1 X204.487 Y73.408 E0.05472
G1 X205.980 Y74.311 E0.05472
G1 X207.354 Y75.387 E0.05472
G1 X208.590 Y76.623 E0.05479
G1 X209.664 Y77.995 E0.05464
G1 X210.567 Y79.488 E0.05472
G1 X211.283 Y81.079 E0.05472
G1 X211.803 Y82.746 E0.05472
G1 X212.117 Y84.462 E0.05472
G1 X212.224 Y86.228 E0.05546
G1 X212.224 Y123.772 E1.17718
G1 X212.117 Y125.538 E0.05546
G1 X211.803 Y127.254 E0.05472
G1 X211.283 Y128.921 E0.05472
G1 X210.567 Y130.512 E0.05472
G1 X209.664 Y132.005 E0.05472
G1 X208.588 Y133.379 E0.05472
G1 X207.354 Y134.613 E0.05472
G1 X205.980 Y135.689 E0.05472
G1 X204.487 Y136.592 E0.05472
G1 X202.896 Y137.308 E0.05472
G1 X201.229 Y137.828 E0.05472
G1 X199.513 Y138.142 E0.05472
G1 X197.747 Y138.249 E0.05546
G1 X52.253 Y138.249 E4.56188
G1 X50.487 Y138.142 E0.05546
G1 X48.771 Y137.828 E0.05472
G1 X47.104 Y137.308 E0.05472
G1 X45.513 Y136.592 E0.05472
G1 X44.020 Y135.689 E0.05472
G1 X42.646 Y134.613 E0.05472
G1 X41.412 Y133.379 E0.05472
G1 X40.336 Y132.005 E0.05472
G1 X39.433 Y130.512 E0.05472
G1 X38.717 Y128.921 E0.05472
G1 X38.197 Y127.254 E0.05472
G1 X37.883 Y125.538 E0.05472
G1 X37.776 Y123.772 E0.05546
G1 X37.776 Y86.228 E1.17718
G1 X37.883 Y84.462 E0.05546
G1 X38.197 Y82.746 E0.05472
G1 X38.717 Y81.079 E0.05472
G1 X39.433 Y79.488 E0.05472
G1 X40.336 Y77.995 E0.05472
G1 X41.412 Y76.621 E0.05472
G1 X42.646 Y75.387 E0.05472
G1 X44.020 Y74.311 E0.05472
G1 X45.513 Y73.408 E0.05472
G1 X47.050 Y72.716 E0.05284
G1 X46.895 Y72.372 F10800.000
;TYPE:External perimeter
G1 F1200.000
G1 X48.680 Y71.806 E0.05873
G1 X50.442 Y71.483 E0.05615
G1 X52.241 Y71.374 E0.05654
G1 X197.767 Y71.375 E4.56285
G1 X199.558 Y71.483 E0.05627
G1 X201.320 Y71.806 E0.05615
G1 X203.030 Y72.338 E0.05615
G1 X204.662 Y73.073 E0.05615
G1 X206.195 Y74.000 E0.05615
G1 X207.605 Y75.104 E0.05615
G1 X208.872 Y76.372 E0.05622
G1 X209.975 Y77.780 E0.05607
G1 X210.902 Y79.313 E0.05615
G1 X211.637 Y80.945 E0.05615
M73 Q0 S157
G1 X212.169 Y82.655 E0.05615
G1 X212.492 Y84.417 E0.05615
G1 X212.601 Y86.216 E0.05654
G1 X212.601 Y123.784 E1.17789
G1 X212.492 Y125.583 E0.05654
G1 X212.169 Y127.345 E0.05615
G1 X211.637 Y129.055 E0.05615
G1 X210.902 Y130.687 E0.05615
G1 X209.975 Y132.220 E0.05615
G1 X208.871 Y133.630 E0.05615
G1 X207.605 Y134.896 E0.05615
G1 X206.195 Y136.000 E0.05615
G1 X204.662 Y136.927 E0.05615
G1 X203.030 Y137.662 E0.05615
G1 X201.320 Y138.194 E0.05615
G1 X199.558 Y138.517 E0.05615
G1 X197.759 Y138.626 E0.05654
G1 X52.241 Y138.626 E4.56259
M73 P0 R152
G1 X50.442 Y138.517 E0.05654
G1 X48.680 Y138.194 E0.05615
G1 X46.970 Y137.662 E0.05615
G1 X45.338 Y136.927 E0.05615
G1 X43.805 Y136.000 E0.05615
G1 X42.395 Y134.896 E0.05615
G1 X41.129 Y133.630 E0.05615
G1 X40.025 Y132.220 E0.05615
G1 X39.098 Y130.687 E0.05615
G1 X38.363 Y129.055 E0.05615
G1 X37.831 Y127.345 E0.05615
G1 X37.508 Y125.583 E0.05615
G1 X37.399 Y123.784 E0.05654
G1 X37.399 Y86.216 E1.17789
G1 X37.508 Y84.417 E0.05654
G1 X37.831 Y82.655 E0.05615
G1 X38.363 Y80.945 E0.05615
G1 X39.098 Y79.313 E0.05615
G1 X40.025 Y77.780 E0.05615
G1 X41.129 Y76.370 E0.05615
G1 X42.395 Y75.104 E0.05615
G1 X43.805 Y74.000 E0.05615
G1 X45.338 Y73.073 E0.05615
G1 X46.840 Y72.397 E0.05167
G1 X47.206 Y72.624 F10800.000
;WIPE_START
G1 F8640.000
G1 X48.680 Y71.806 E-0.44624
G1 X50.017 Y71.561 E-0.31376
;WIPE_END
G1 E-0.04000 F2100.000
G1 Z0.600 F10800.000
G1 X209.373 Y77.806
G1 Z0.200
G1 E0.80000 F2100.000
;TYPE:Solid infill
;WIDTH:0.420383
G1 F1200.000
G1 X207.165 Y75.598 E0.09801
G1 X205.819 Y74.544 E0.05363
G1 X205.206 Y74.173 E0.02249
G1 X209.802 Y78.769 E0.20399
G1 X210.316 Y79.620 E0.03121
G1 X210.478 Y79.978 E0.01235
G1 X203.997 Y73.497 E0.28768
G1 X203.026 Y73.060 E0.03341
G1 X210.915 Y80.949 E0.35016
G1 X211.018 Y81.180 E0.00794
G1 X211.203 Y81.771 E0.01943
G1 X202.204 Y72.772 E0.39942
G1 X201.429 Y72.531 E0.02549
G1 X211.444 Y82.546 E0.44457
G1 X211.527 Y82.813 E0.00877
G1 X211.606 Y83.242 E0.01368
G1 X200.733 Y72.369 E0.48262
G1 X200.079 Y72.249 E0.02086
G1 X211.726 Y83.896 E0.51694
G1 X211.839 Y84.542 E0.02060
G1 X199.433 Y72.136 E0.55066
G1 X198.865 Y72.102 E0.01787
G1 X211.873 Y85.110 E0.57740
G1 X211.907 Y85.679 E0.01787
G1 X198.296 Y72.068 E0.60415
G1 X197.729 Y72.034 E0.01783
G1 X211.941 Y86.246 E0.63081
G1 X211.941 Y86.780 E0.01675
G1 X197.196 Y72.034 E0.65451
G1 X196.662 Y72.034 E0.01675
G1 X211.941 Y87.314 E0.67820
G1 X211.941 Y87.848 E0.01675
G1 X196.128 Y72.034 E0.70190
G1 X195.594 Y72.034 E0.01675
G1 X211.941 Y88.381 E0.72559
G1 X211.941 Y88.915 E0.01675
G1 X195.060 Y72.034 E0.74929
M73 P1 R152
G1 X194.526 Y72.034 E0.01675
G1 X211.941 Y89.449 E0.77298
M73 Q1 S157
G1 X211.941 Y89.983 E0.01675
G1 X193.993 Y72.034 E0.79668
G1 X193.459 Y72.034 E0.01675
G1 X211.941 Y90.517 E0.82037
G1 X211.941 Y91.050 E0.01675
G1 X192.925 Y72.034 E0.84406
G1 X192.391 Y72.034 E0.01675
G1 X211.941 Y91.584 E0.86776
G1 X211.941 Y92.118 E0.01675
G1 X191.857 Y72.034 E0.89145
G1 X191.324 Y72.034 E0.01675
G1 X211.941 Y92.652 E0.91515
G1 X211.941 Y93.186 E0.01675
G1 X190.790 Y72.034 E0.93884
G1 X190.256 Y72.034 E0.01675
G1 X211.941 Y93.720 E0.96254
G1 X211.941 Y94.253 E0.01675
G1 X189.722 Y72.034 E0.98623
G1 X189.188 Y72.034 E0.01675
G1 X211.941 Y94.787 E1.00992
G1 X211.941 Y95.321 E0.01675
G1 X188.654 Y72.034 E1.03362
G1 X188.121 Y72.034 E0.01675
G1 X211.941 Y95.855 E1.05731
G1 X211.941 Y96.389 E0.01675
G1 X187.587 Y72.034 E1.08101
G1 X187.053 Y72.034 E0.01675
G1 X211.941 Y96.922 E1.10470
G1 X211.941 Y97.456 E0.01675
G1 X186.519 Y72.034 E1.12840
G1 X185.985 Y72.034 E0.01675
G1 X211.941 Y97.990 E1.15209
G1 X211.941 Y98.524 E0.01675
G1 X185.452 Y72.034 E1.17578
G1 X184.918 Y72.034 E0.01675
G1 X211.941 Y99.058 E1.19948
M73 Q1 S156
G1 X211.941 Y99.592 E0.01675
G1 X184.384 Y72.034 E1.22317
G1 X183.850 Y72.034 E0.01675
G1 X211.941 Y100.125 E1.24687
G1 X211.941 Y100.659 E0.01675
G1 X183.316 Y72.034 E1.27056
M73 P1 R151
G1 X182.783 Y72.034 E0.01675
G1 X211.941 Y101.193 E1.29426
G1 X211.941 Y101.727 E0.01675
G1 X182.249 Y72.034 E1.31795
G1 X181.715 Y72.034 E0.01675
G1 X211.941 Y102.261 E1.34164
G1 X211.941 Y102.794 E0.01675
G1 X181.181 Y72.034 E1.36534
G1 X180.647 Y72.034 E0.01675
G1 X211.941 Y103.328 E1.38903
G1 X211.941 Y103.862 E0.01675
G1 X180.113 Y72.034 E1.41273
G1 X179.580 Y72.034 E0.01675
G1 X211.941 Y104.396 E1.43642
G1 X211.941 Y104.930 E0.01675
G1 X179.046 Y72.034 E1.46012
G1 X178.512 Y72.034 E0.01675
G1 X211.941 Y105.463 E1.48381
G1 X211.941 Y105.997 E0.01675
G1 X177.978 Y72.034 E1.50750
G1 X177.444 Y72.034 E0.01675
G1 X211.941 Y106.531 E1.53120
G1 X211.941 Y107.065 E0.01675
G1 X176.911 Y72.034 E1.55489
G1 X176.377 Y72.034 E0.01675
G1 X211.941 Y107.599 E1.57859
G1 X211.941 Y108.133 E0.01675
G1 X175.843 Y72.034 E1.60228
G1 X175.309 Y72.034 E0.01675
G1 X211.941 Y108.666 E1.62598
G1 X211.941 Y109.200 E0.01675
G1 X174.775 Y72.034 E1.64967
G1 X174.241 Y72.034 E0.01675
G1 X211.941 Y109.734 E1.67337
G1 X211.941 Y110.268 E0.01675
G1 X173.708 Y72.034 E1.69706
G1 X173.174 Y72.034 E0.01675
G1 X211.941 Y110.802 E1.72075
G1 X211.941 Y111.335 E0.01675
G1 X172.640 Y72.034 E1.74445
G1 X172.106 Y72.034 E0.01675
G1 X211.941 Y111.869 E1.76814
G1 X211.941 Y112.403 E0.01675
G1 X171.572 Y72.034 E1.79184
M73 P2 R151
M73 Q1 S155
G1 X171.039 Y72.034 E0.01675
G1 X211.941 Y112.937 E1.81553
G1 X211.941 Y113.471 E0.01675
G1 X170.505 Y72.034 E1.83923
M73 P2 R150
M73 Q2 S155
G1 X169.971 Y72.034 E0.01675
G1 X211.941 Y114.004 E1.86292
G1 X211.941 Y114.538 E0.01675
G1 X169.437 Y72.034 E1.88661
G1 X168.903 Y72.034 E0.01675
G1 X211.941 Y115.072 E1.91031
G1 X211.941 Y115.606 E0.01675
G1 X168.370 Y72.034 E1.93400
G1 X167.836 Y72.034 E0.01675
G1 X211.941 Y116.140 E1.95770
G1 X211.941 Y116.674 E0.01675
G1 X167.302 Y72.034 E1.98139
G1 X166.768 Y72.034 E0.01675
G1 X211.941 Y117.207 E2.00509
G1 X211.941 Y117.741 E0.01675
G1 X166.234 Y72.034 E2.02878
G1 X165.700 Y72.034 E0.01675
G1 X211.941 Y118.275 E2.05247
G1 X211.941 Y118.809 E0.01675
G1 X165.167 Y72.034 E2.07617
G1 X164.633 Y72.034 E0.01675
G1 X211.941 Y119.343 E2.09986
G1 X211.941 Y119.876 E0.01675
G1 X164.099 Y72.034 E2.12356
G1 X163.565 Y72.034 E0.01675
G1 X211.941 Y120.410 E2.14725
G1 X211.941 Y120.944 E0.01675
G1 X163.031 Y72.034 E2.17095
G1 X162.498 Y72.034 E0.01675
G1 X211.941 Y121.478 E2.19464
G1 X211.941 Y122.012 E0.01675
G1 X161.964 Y72.034 E2.21833
M73 Q2 S154
G1 X161.430 Y72.034 E0.01675
G1 X211.941 Y122.545 E2.24203
G1 X211.941 Y123.079 E0.01675
G1 X160.896 Y72.034 E2.26572
M73 P2 R149
G1 X160.362 Y72.034 E0.01675
G1 X211.941 Y123.613 E2.28942
G1 X211.919 Y124.125 E0.01608
G1 X159.828 Y72.034 E2.31214
G1 X159.295 Y72.034 E0.01675
G1 X211.889 Y124.628 E2.33448
G1 X211.858 Y125.132 E0.01583
G1 X158.761 Y72.034 E2.35683
G1 X158.227 Y72.034 E0.01675
G1 X211.814 Y125.622 E2.37856
G1 X211.732 Y126.073 E0.01440
G1 X157.693 Y72.034 E2.39859
G1 X157.159 Y72.034 E0.01675
G1 X211.649 Y126.524 E2.41861
M73 P3 R149
G1 X211.566 Y126.975 E0.01440
G1 X156.626 Y72.034 E2.43864
G1 X156.092 Y72.034 E0.01675
G1 X211.460 Y127.403 E2.45762
M73 Q3 S154
G1 X211.333 Y127.810 E0.01338
G1 X155.558 Y72.034 E2.47569
G1 X155.024 Y72.034 E0.01675
G1 X211.207 Y128.217 E2.49375
G1 X211.080 Y128.624 E0.01338
G1 X154.490 Y72.034 E2.51182
G1 X153.956 Y72.034 E0.01675
G1 X210.933 Y129.011 E2.52899
G1 X210.767 Y129.379 E0.01267
G1 X153.423 Y72.034 E2.54533
M73 Q3 S153
G1 X152.889 Y72.034 E0.01675
G1 X210.601 Y129.747 E2.56167
M73 P3 R148
G1 X210.436 Y130.115 E0.01267
G1 X152.355 Y72.034 E2.57801
G1 X151.821 Y72.034 E0.01675
G1 X210.260 Y130.473 E2.59391
G1 X210.059 Y130.806 E0.01220
G1 X151.287 Y72.034 E2.60868
G1 X150.754 Y72.034 E0.01675
G1 X209.858 Y131.139 E2.62345
G1 X209.657 Y131.471 E0.01220
G1 X150.220 Y72.034 E2.63822
G1 X149.686 Y72.034 E0.01675
G1 X209.456 Y131.804 E2.65298
G1 X209.225 Y132.107 E0.01196
G1 X149.152 Y72.034 E2.66645
G1 X148.618 Y72.034 E0.01675
G1 X208.991 Y132.407 E2.67973
G1 X208.756 Y132.706 E0.01193
G1 X148.085 Y72.034 E2.69302
G1 X147.551 Y72.034 E0.01675
G1 X208.522 Y133.005 E2.70631
G1 X208.275 Y133.292 E0.01188
G1 X147.017 Y72.034 E2.71905
G1 X146.483 Y72.034 E0.01675
G1 X208.008 Y133.559 E2.73089
G1 X207.741 Y133.826 E0.01185
G1 X145.949 Y72.034 E2.74274
M73 Q3 S152
G1 X145.415 Y72.034 E0.01675
G1 X207.474 Y134.093 E2.75459
M73 P4 R147
G1 X207.207 Y134.360 E0.01185
G1 X144.882 Y72.034 E2.76644
G1 X144.348 Y72.034 E0.01675
G1 X206.913 Y134.599 E2.77707
G1 X206.614 Y134.834 E0.01193
G1 X143.814 Y72.034 E2.78748
M73 Q4 S152
G1 X143.280 Y72.034 E0.01675
G1 X206.314 Y135.068 E2.79788
G1 X206.015 Y135.303 E0.01193
G1 X142.746 Y72.034 E2.80829
G1 X142.213 Y72.034 E0.01675
G1 X205.704 Y135.526 E2.81819
G1 X205.372 Y135.727 E0.01220
G1 X141.679 Y72.034 E2.82712
G1 X141.145 Y72.034 E0.01675
G1 X205.039 Y135.928 E2.83604
G1 X204.706 Y136.129 E0.01220
G1 X140.611 Y72.034 E2.84497
G1 X140.077 Y72.034 E0.01675
G1 X204.373 Y136.330 E2.85390
G1 X204.007 Y136.498 E0.01264
G1 X139.543 Y72.034 E2.86134
G1 X139.010 Y72.034 E0.01675
G1 X203.639 Y136.664 E2.86869
M73 Q4 S151
G1 X203.271 Y136.829 E0.01267
G1 X138.476 Y72.034 E2.87605
G1 X137.942 Y72.034 E0.01675
G1 X202.903 Y136.995 E2.88340
M73 P4 R146
G1 X202.507 Y137.133 E0.01315
G1 X137.408 Y72.034 E2.88953
G1 X136.874 Y72.034 E0.01675
G1 X202.100 Y137.260 E2.89516
G1 X201.693 Y137.387 E0.01338
G1 X136.341 Y72.034 E2.90079
G1 X135.807 Y72.034 E0.01675
G1 X201.286 Y137.514 E2.90642
G1 X200.849 Y137.610 E0.01406
G1 X135.273 Y72.034 E2.91069
G1 X134.739 Y72.034 E0.01675
G1 X200.397 Y137.693 E2.91436
G1 X199.946 Y137.775 E0.01440
G1 X134.205 Y72.034 E2.91803
M73 P5 R146
G1 X133.672 Y72.034 E0.01675
G1 X199.495 Y137.858 E2.92170
G1 X198.994 Y137.890 E0.01577
G1 X133.138 Y72.034 E2.92314
G1 X132.604 Y72.034 E0.01675
G1 X198.490 Y137.921 E2.92449
M73 Q5 S151
G1 X197.987 Y137.951 E0.01583
G1 X132.070 Y72.034 E2.92584
M73 Q5 S150
G1 X131.536 Y72.034 E0.01675
G1 X197.468 Y137.966 E2.92651
M73 P5 R145
G1 X196.934 Y137.966 E0.01675
G1 X131.002 Y72.034 E2.92651
G1 X130.469 Y72.034 E0.01675
G1 X196.401 Y137.966 E2.92651
G1 X195.867 Y137.966 E0.01675
G1 X129.935 Y72.034 E2.92651
G1 X129.401 Y72.034 E0.01675
G1 X195.333 Y137.966 E2.92651
G1 X194.799 Y137.966 E0.01675
G1 X128.867 Y72.034 E2.92651
G1 X128.333 Y72.034 E0.01675
G1 X194.265 Y137.966 E2.92651
G1 X193.732 Y137.966 E0.01675
