; generated by PrusaSlicer 2.3.3+arm64 on 2021-12-09 at 05:50:16 UTC

; 

; external perimeters extrusion width = 0.45mm
; perimeters extrusion width = 0.45mm
; infill extrusion width = 0.45mm
; solid infill extrusion width = 0.45mm
; top infill extrusion width = 0.40mm
; first layer extrusion width = 0.42mm

M73 P0 R72
M73 Q0 S72
M201 X1000 Y1000 Z200 E5000 ; sets maximum accelerations, mm/sec^2
M203 X200 Y200 Z12 E120 ; sets maximum feedrates, mm/sec
M204 P1250 R1250 T1250 ; sets acceleration (P, T) and retract acceleration (R), mm/sec^2
M205 X8.00 Y8.00 Z0.40 E4.50 ; sets the jerk limits, mm/sec
M205 S0 T0 ; sets the minimum extruding and travel feed rate, mm/sec
M107
;TYPE:Custom
M862.3 P "MK3" ; printer model check
M862.1 P0.4 ; nozzle diameter check
M115 U3.10.0 ; tell printer latest fw version
G90 ; use absolute coordinates
M83 ; extruder relative mode
M104 S215 ; set extruder temp
M140 S60 ; set bed temp
M190 S60 ; wait for bed temp
M109 S215 ; wait for extruder temp
G28 W ; home all without mesh bed level
G80 ; mesh bed leveling
G1 Y-3.0 F1000.0 ; go outside print area
G92 E0.0
G1 X60.0 E9.0 F1000.0 ; intro line
G1 X100.0 E12.5 F1000.0 ; intro line
G92 E0.0
M221 S95

; Don't change E values below. Excessive value can damage the printer.

M907 E538 ; set extruder motor current
G21 ; set units to millimeters
G90 ; use absolute coordinates
M83 ; use relative distances for extrusion
M900 K0.05 ; Filament gcode LA 1.5
M900 K30 ; Filament gcode LA 1.0
;LAYER_CHANGE
;Z:0.2
;HEIGHT:0.2
;BEFORE_LAYER_CHANGE
G92 E0.0
;0.2


G1 E-0.80000 F2100.000
G1 Z0.400 F10800.000
;AFTER_LAYER_CHANGE
;0.2
G1 X41.182 Y83.940
G1 Z0.200
G1 E0.80000 F2100.000
M204 S1000
;TYPE:Skirt
;WIDTH:0.42
G1 F1200.000
G1 X41.883 Y83.642 E0.02390
G1 X42.450 Y83.573 E0.01790
G1 X207.554 Y83.573 E5.17671
G1 X208.456 Y83.752 E0.02884
G1 X209.220 Y84.258 E0.02872
G1 X209.737 Y85.019 E0.02884
G1 X209.927 Y85.918 E0.02884
G1 X209.925 Y124.157 E1.19893
G1 X209.769 Y124.903 E0.02390
G1 X209.387 Y125.558 E0.02378
G1 X208.818 Y126.060 E0.02378
G1 X208.117 Y126.358 E0.02390
G1 X207.550 Y126.427 E0.01790
G1 X42.423 Y126.427 E5.17743
M73 P0 R71
G1 X41.654 Y126.290 E0.02449
G1 X40.971 Y125.911 E0.02449
G1 X40.450 Y125.335 E0.02437
G1 X40.142 Y124.617 E0.02449
G1 X40.073 Y124.055 E0.01775
G1 X40.075 Y85.851 E1.19786
G1 X40.228 Y85.104 E0.02390
G1 X40.610 Y84.445 E0.02390
G1 X41.137 Y83.979 E0.02202
; printing object AMS_JUSTBookmark v4.stl id:0 copy 0
;WIPE_START
G1 F8640.000
G1 X41.883 Y83.642 E-0.18921
G1 X42.450 Y83.573 E-0.13186
G1 X44.351 Y83.573 E-0.43893
;WIPE_END
G1 E-0.04000 F2100.000
G1 Z0.600 F10800.000
G1 X43.237 Y86.737
G1 Z0.200
G1 E0.80000 F2100.000
;TYPE:Perimeter
G1 F1200.000
G1 X206.763 Y86.737 E5.12724
G1 X206.763 Y123.263 E1.14524
G1 X43.237 Y123.263 E5.12724
M73 P1 R71
M73 Q1 S72
G1 X43.237 Y86.797 E1.14336
G1 X42.860 Y86.360 F10800.000
;TYPE:External perimeter
G1 F1200.000
G1 X207.140 Y86.360 E5.15088
M73 Q1 S71
G1 X207.140 Y123.640 E1.16889
G1 X42.860 Y123.640 E5.15088
G1 X42.860 Y86.420 E1.16701
G1 X43.259 Y86.390 F10800.000
;WIPE_START
G1 F8640.000
G1 X46.151 Y86.419 E-0.76000
;WIPE_END
G1 E-0.04000 F2100.000
G1 Z0.600 F10800.000
G1 X205.887 Y86.850
G1 Z0.200
G1 E0.80000 F2100.000
;TYPE:Solid infill
;WIDTH:0.420436
G1 F1200.000
G1 X206.480 Y87.444 E0.02635
G1 X206.480 Y87.978 E0.01676
G1 X205.522 Y87.020 E0.04252
G1 X204.989 Y87.020 E0.01676
G1 X206.480 Y88.511 E0.06622
G1 X206.480 Y89.045 E0.01676
G1 X204.455 Y87.020 E0.08992
G1 X203.921 Y87.020 E0.01676
G1 X206.480 Y89.579 E0.11362
G1 X206.480 Y90.113 E0.01676
G1 X203.387 Y87.020 E0.13732
G1 X202.853 Y87.020 E0.01676
G1 X206.480 Y90.647 E0.16102
G1 X206.480 Y91.181 E0.01676
G1 X202.319 Y87.020 E0.18472
G1 X201.785 Y87.020 E0.01676
G1 X206.480 Y91.715 E0.20842
G1 X206.480 Y92.249 E0.01676
G1 X201.251 Y87.020 E0.23212
G1 X200.717 Y87.020 E0.01676
G1 X206.480 Y92.783 E0.25582
G1 X206.480 Y93.316 E0.01676
G1 X200.184 Y87.020 E0.27952
G1 X199.650 Y87.020 E0.01676
G1 X206.480 Y93.850 E0.30323
G1 X206.480 Y94.384 E0.01676
G1 X199.116 Y87.020 E0.32693
G1 X198.582 Y87.020 E0.01676
G1 X206.480 Y94.918 E0.35063
G1 X206.480 Y95.452 E0.01676
G1 X198.048 Y87.020 E0.37433
G1 X197.514 Y87.020 E0.01676
G1 X206.480 Y95.986 E0.39803
G1 X206.480 Y96.520 E0.01676
G1 X196.980 Y87.020 E0.42173
G1 X196.446 Y87.020 E0.01676
G1 X206.480 Y97.054 E0.44543
G1 X206.480 Y97.588 E0.01676
G1 X195.912 Y87.020 E0.46913
G1 X195.379 Y87.020 E0.01676
G1 X206.480 Y98.121 E0.49283
G1 X206.480 Y98.655 E0.01676
G1 X194.845 Y87.020 E0.51653
M73 P1 R70
G1 X194.311 Y87.020 E0.01676
G1 X206.480 Y99.189 E0.54023
G1 X206.480 Y99.723 E0.01676
G1 X193.777 Y87.020 E0.56394
G1 X193.243 Y87.020 E0.01676
G1 X206.480 Y100.257 E0.58764
G1 X206.480 Y100.791 E0.01676
G1 X192.709 Y87.020 E0.61134
G1 X192.175 Y87.020 E0.01676
G1 X206.480 Y101.325 E0.63504
G1 X206.480 Y101.859 E0.01676
G1 X191.641 Y87.020 E0.65874
M73 P2 R70
M73 Q2 S71
G1 X191.107 Y87.020 E0.01676
G1 X206.480 Y102.393 E0.68244
G1 X206.480 Y102.926 E0.01676
G1 X190.574 Y87.020 E0.70614
G1 X190.040 Y87.020 E0.01676
G1 X206.480 Y103.460 E0.72984
G1 X206.480 Y103.994 E0.01676
G1 X189.506 Y87.020 E0.75354
G1 X188.972 Y87.020 E0.01676
G1 X206.480 Y104.528 E0.77724
G1 X206.480 Y105.062 E0.01676
G1 X188.438 Y87.020 E0.80094
G1 X187.904 Y87.020 E0.01676
G1 X206.480 Y105.596 E0.82465
G1 X206.480 Y106.130 E0.01676
G1 X187.370 Y87.020 E0.84835
G1 X186.836 Y87.020 E0.01676
G1 X206.480 Y106.664 E0.87205
G1 X206.480 Y107.198 E0.01676
G1 X186.302 Y87.020 E0.89575
G1 X185.769 Y87.020 E0.01676
G1 X206.480 Y107.731 E0.91945
G1 X206.480 Y108.265 E0.01676
G1 X185.235 Y87.020 E0.94315
G1 X184.701 Y87.020 E0.01676
G1 X206.480 Y108.799 E0.96685
G1 X206.480 Y109.333 E0.01676
G1 X184.167 Y87.020 E0.99055
G1 X183.633 Y87.020 E0.01676
G1 X206.480 Y109.867 E1.01425
G1 X206.480 Y110.401 E0.01676
G1 X183.099 Y87.020 E1.03795
G1 X182.565 Y87.020 E0.01676
G1 X206.480 Y110.935 E1.06165
G1 X206.480 Y111.469 E0.01676
G1 X182.031 Y87.020 E1.08536
G1 X181.497 Y87.020 E0.01676
G1 X206.480 Y112.003 E1.10906
G1 X206.480 Y112.536 E0.01676
G1 X180.964 Y87.020 E1.13276
M73 Q2 S70
G1 X180.430 Y87.020 E0.01676
G1 X206.480 Y113.070 E1.15646
G1 X206.480 Y113.604 E0.01676
G1 X179.896 Y87.020 E1.18016
G1 X179.362 Y87.020 E0.01676
G1 X206.480 Y114.138 E1.20386
G1 X206.480 Y114.672 E0.01676
G1 X178.828 Y87.020 E1.22756
G1 X178.294 Y87.020 E0.01676
G1 X206.480 Y115.206 E1.25126
G1 X206.480 Y115.740 E0.01676
G1 X177.760 Y87.020 E1.27496
G1 X177.226 Y87.020 E0.01676
G1 X206.480 Y116.274 E1.29866
M73 P3 R70
M73 Q3 S70
G1 X206.480 Y116.808 E0.01676
G1 X176.692 Y87.020 E1.32236
G1 X176.159 Y87.020 E0.01676
G1 X206.480 Y117.341 E1.34607
G1 X206.480 Y117.875 E0.01676
G1 X175.625 Y87.020 E1.36977
G1 X175.091 Y87.020 E0.01676
G1 X206.480 Y118.409 E1.39347
G1 X206.480 Y118.943 E0.01676
G1 X174.557 Y87.020 E1.41717
M73 P3 R69
G1 X174.023 Y87.020 E0.01676
G1 X206.480 Y119.477 E1.44087
G1 X206.480 Y120.011 E0.01676
G1 X173.489 Y87.020 E1.46457
G1 X172.955 Y87.020 E0.01676
G1 X206.480 Y120.545 E1.48827
G1 X206.480 Y121.079 E0.01676
G1 X172.421 Y87.020 E1.51197
G1 X171.887 Y87.020 E0.01676
G1 X206.480 Y121.613 E1.53567
G1 X206.480 Y122.146 E0.01676
G1 X171.354 Y87.020 E1.55937
G1 X170.820 Y87.020 E0.01676
G1 X206.480 Y122.680 E1.58307
G1 X206.480 Y122.980 E0.00941
G1 X206.246 Y122.980 E0.00735
G1 X170.286 Y87.020 E1.59638
G1 X169.752 Y87.020 E0.01676
G1 X205.712 Y122.980 E1.59638
G1 X205.178 Y122.980 E0.01676
G1 X169.218 Y87.020 E1.59638
G1 X168.684 Y87.020 E0.01676
G1 X204.644 Y122.980 E1.59638
G1 X204.110 Y122.980 E0.01676
G1 X168.150 Y87.020 E1.59638
G1 X167.616 Y87.020 E0.01676
G1 X203.577 Y122.980 E1.59638
M73 P4 R69
M73 Q4 S70
G1 X203.043 Y122.980 E0.01676
G1 X167.082 Y87.020 E1.59638
M73 Q4 S69
G1 X166.549 Y87.020 E0.01676
G1 X202.509 Y122.980 E1.59638
G1 X201.975 Y122.980 E0.01676
G1 X166.015 Y87.020 E1.59638
G1 X165.481 Y87.020 E0.01676
G1 X201.441 Y122.980 E1.59638
G1 X200.907 Y122.980 E0.01676
G1 X164.947 Y87.020 E1.59638
G1 X164.413 Y87.020 E0.01676
G1 X200.373 Y122.980 E1.59638
G1 X199.839 Y122.980 E0.01676
G1 X163.879 Y87.020 E1.59638
G1 X163.345 Y87.020 E0.01676
G1 X199.305 Y122.980 E1.59638
G1 X198.772 Y122.980 E0.01676
G1 X162.811 Y87.020 E1.59638
G1 X162.277 Y87.020 E0.01676
G1 X198.238 Y122.980 E1.59638
G1 X197.704 Y122.980 E0.01676
G1 X161.744 Y87.020 E1.59638
M73 P4 R68
G1 X161.210 Y87.020 E0.01676
G1 X197.170 Y122.980 E1.59638
G1 X196.636 Y122.980 E0.01676
G1 X160.676 Y87.020 E1.59638
G1 X160.142 Y87.020 E0.01676
G1 X196.102 Y122.980 E1.59638
G1 X195.568 Y122.980 E0.01676
G1 X159.608 Y87.020 E1.59638
G1 X159.074 Y87.020 E0.01676
G1 X195.034 Y122.980 E1.59638
G1 X194.500 Y122.980 E0.01676
G1 X158.540 Y87.020 E1.59638
M73 P5 R68
M73 Q5 S69
G1 X158.006 Y87.020 E0.01676
G1 X193.967 Y122.980 E1.59638
G1 X193.433 Y122.980 E0.01676
G1 X157.472 Y87.020 E1.59638
G1 X156.939 Y87.020 E0.01676
G1 X192.899 Y122.980 E1.59638
G1 X192.365 Y122.980 E0.01676
G1 X156.405 Y87.020 E1.59638
G1 X155.871 Y87.020 E0.01676
G1 X191.831 Y122.980 E1.59638
G1 X191.297 Y122.980 E0.01676
G1 X155.337 Y87.020 E1.59638
G1 X154.803 Y87.020 E0.01676
G1 X190.763 Y122.980 E1.59638
M73 Q5 S68
G1 X190.229 Y122.980 E0.01676
G1 X154.269 Y87.020 E1.59638
G1 X153.735 Y87.020 E0.01676
G1 X189.695 Y122.980 E1.59638
G1 X189.162 Y122.980 E0.01676
G1 X153.201 Y87.020 E1.59638
G1 X152.667 Y87.020 E0.01676
G1 X188.628 Y122.980 E1.59638
G1 X188.094 Y122.980 E0.01676
G1 X152.134 Y87.020 E1.59638
G1 X151.600 Y87.020 E0.01676
G1 X187.560 Y122.980 E1.59638
G1 X187.026 Y122.980 E0.01676
G1 X151.066 Y87.020 E1.59638
G1 X150.532 Y87.020 E0.01676
G1 X186.492 Y122.980 E1.59638
G1 X185.958 Y122.980 E0.01676
G1 X149.998 Y87.020 E1.59638
M73 P6 R68
G1 X149.464 Y87.020 E0.01676
G1 X185.424 Y122.980 E1.59638
M73 P6 R67
M73 Q6 S68
G1 X184.890 Y122.980 E0.01676
G1 X148.930 Y87.020 E1.59638
G1 X148.396 Y87.020 E0.01676
G1 X184.357 Y122.980 E1.59638
G1 X183.823 Y122.980 E0.01676
G1 X147.862 Y87.020 E1.59638
G1 X147.329 Y87.020 E0.01676
G1 X183.289 Y122.980 E1.59638
G1 X182.755 Y122.980 E0.01676
G1 X146.795 Y87.020 E1.59638
G1 X146.261 Y87.020 E0.01676
G1 X182.221 Y122.980 E1.59638
G1 X181.687 Y122.980 E0.01676
G1 X145.727 Y87.020 E1.59638
G1 X145.193 Y87.020 E0.01676
G1 X181.153 Y122.980 E1.59638
G1 X180.619 Y122.980 E0.01676
G1 X144.659 Y87.020 E1.59638
G1 X144.125 Y87.020 E0.01676
G1 X180.086 Y122.980 E1.59638
G1 X179.552 Y122.980 E0.01676
G1 X143.591 Y87.020 E1.59638
G1 X143.057 Y87.020 E0.01676
G1 X179.018 Y122.980 E1.59638
G1 X178.484 Y122.980 E0.01676
G1 X142.524 Y87.020 E1.59638
M73 Q6 S67
G1 X141.990 Y87.020 E0.01676
G1 X177.950 Y122.980 E1.59638
G1 X177.416 Y122.980 E0.01676
G1 X141.456 Y87.020 E1.59638
G1 X140.922 Y87.020 E0.01676
G1 X176.882 Y122.980 E1.59638
M73 P7 R67
G1 X176.348 Y122.980 E0.01676
G1 X140.388 Y87.020 E1.59638
M73 Q7 S67
G1 X139.854 Y87.020 E0.01676
G1 X175.814 Y122.980 E1.59638
G1 X175.281 Y122.980 E0.01676
G1 X139.320 Y87.020 E1.59638
G1 X138.786 Y87.020 E0.01676
G1 X174.747 Y122.980 E1.59638
G1 X174.213 Y122.980 E0.01676
G1 X138.252 Y87.020 E1.59638
G1 X137.719 Y87.020 E0.01676
G1 X173.679 Y122.980 E1.59638
G1 X173.145 Y122.980 E0.01676
G1 X137.185 Y87.020 E1.59638
M73 P7 R66
G1 X136.651 Y87.020 E0.01676
G1 X172.611 Y122.980 E1.59638
G1 X172.077 Y122.980 E0.01676
G1 X136.117 Y87.020 E1.59638
G1 X135.583 Y87.020 E0.01676
G1 X171.543 Y122.980 E1.59638
G1 X171.009 Y122.980 E0.01676
G1 X135.049 Y87.020 E1.59638
G1 X134.515 Y87.020 E0.01676
G1 X170.476 Y122.980 E1.59638
G1 X169.942 Y122.980 E0.01676
G1 X133.981 Y87.020 E1.59638
G1 X133.447 Y87.020 E0.01676
G1 X169.408 Y122.980 E1.59638
G1 X168.874 Y122.980 E0.01676
G1 X132.914 Y87.020 E1.59638
G1 X132.380 Y87.020 E0.01676
G1 X168.340 Y122.980 E1.59638
G1 X167.806 Y122.980 E0.01676
G1 X131.846 Y87.020 E1.59638
M73 P8 R66
G1 X131.312 Y87.020 E0.01676
G1 X167.272 Y122.980 E1.59638
M73 Q8 S67
G1 X166.738 Y122.980 E0.01676
G1 X130.778 Y87.020 E1.59638
G1 X130.244 Y87.020 E0.01676
G1 X166.204 Y122.980 E1.59638
G1 X165.671 Y122.980 E0.01676
G1 X129.710 Y87.020 E1.59638
M73 Q8 S66
G1 X129.176 Y87.020 E0.01676
G1 X165.137 Y122.980 E1.59638
G1 X164.603 Y122.980 E0.01676
G1 X128.642 Y87.020 E1.59638
G1 X128.109 Y87.020 E0.01676
G1 X164.069 Y122.980 E1.59638
G1 X163.535 Y122.980 E0.01676
G1 X127.575 Y87.020 E1.59638
G1 X127.041 Y87.020 E0.01676
G1 X163.001 Y122.980 E1.59638
G1 X162.467 Y122.980 E0.01676
G1 X126.507 Y87.020 E1.59638
G1 X125.973 Y87.020 E0.01676
G1 X161.933 Y122.980 E1.59638
G1 X161.399 Y122.980 E0.01676
G1 X125.439 Y87.020 E1.59638
G1 X124.905 Y87.020 E0.01676
G1 X160.866 Y122.980 E1.59638
M73 P8 R65
G1 X160.332 Y122.980 E0.01676
G1 X124.371 Y87.020 E1.59638
G1 X123.838 Y87.020 E0.01676
G1 X159.798 Y122.980 E1.59638
G1 X159.264 Y122.980 E0.01676
G1 X123.304 Y87.020 E1.59638
G1 X122.770 Y87.020 E0.01676
M73 P9 R65
G1 X158.730 Y122.980 E1.59638
M73 Q9 S66
G1 X158.196 Y122.980 E0.01676
G1 X122.236 Y87.020 E1.59638
G1 X121.702 Y87.020 E0.01676
G1 X157.662 Y122.980 E1.59638
G1 X157.128 Y122.980 E0.01676
G1 X121.168 Y87.020 E1.59638
G1 X120.634 Y87.020 E0.01676
G1 X156.594 Y122.980 E1.59638
G1 X156.061 Y122.980 E0.01676
G1 X120.100 Y87.020 E1.59638
G1 X119.566 Y87.020 E0.01676
G1 X155.527 Y122.980 E1.59638
G1 X154.993 Y122.980 E0.01676
G1 X119.033 Y87.020 E1.59638
G1 X118.499 Y87.020 E0.01676
G1 X154.459 Y122.980 E1.59638
G1 X153.925 Y122.980 E0.01676
G1 X117.965 Y87.020 E1.59638
G1 X117.431 Y87.020 E0.01676
G1 X153.391 Y122.980 E1.59638
M73 Q9 S65
G1 X152.857 Y122.980 E0.01676
G1 X116.897 Y87.020 E1.59638
G1 X116.363 Y87.020 E0.01676
G1 X152.323 Y122.980 E1.59638
G1 X151.789 Y122.980 E0.01676
G1 X115.829 Y87.020 E1.59638
G1 X115.295 Y87.020 E0.01676
G1 X151.256 Y122.980 E1.59638
G1 X150.722 Y122.980 E0.01676
G1 X114.761 Y87.020 E1.59638
G1 X114.228 Y87.020 E0.01676
G1 X150.188 Y122.980 E1.59638
M73 P10 R65
G1 X149.654 Y122.980 E0.01676
G1 X113.694 Y87.020 E1.59638
M73 Q10 S65
G1 X113.160 Y87.020 E0.01676
G1 X149.120 Y122.980 E1.59638
G1 X148.586 Y122.980 E0.01676
G1 X112.626 Y87.020 E1.59638
G1 X112.092 Y87.020 E0.01676
G1 X148.052 Y122.980 E1.59638
M73 P10 R64
G1 X147.518 Y122.980 E0.01676
G1 X111.558 Y87.020 E1.59638
G1 X111.024 Y87.020 E0.01676
G1 X146.984 Y122.980 E1.59638
G1 X146.451 Y122.980 E0.01676
G1 X110.490 Y87.020 E1.59638
G1 X109.956 Y87.020 E0.01676
G1 X145.917 Y122.980 E1.59638
G1 X145.383 Y122.980 E0.01676
G1 X109.423 Y87.020 E1.59638
G1 X108.889 Y87.020 E0.01676
G1 X144.849 Y122.980 E1.59638
G1 X144.315 Y122.980 E0.01676
G1 X108.355 Y87.020 E1.59638
G1 X107.821 Y87.020 E0.01676
G1 X143.781 Y122.980 E1.59638
G1 X143.247 Y122.980 E0.01676
G1 X107.287 Y87.020 E1.59638
G1 X106.753 Y87.020 E0.01676
G1 X142.713 Y122.980 E1.59638
G1 X142.179 Y122.980 E0.01676
G1 X106.219 Y87.020 E1.59638
G1 X105.685 Y87.020 E0.01676
G1 X141.646 Y122.980 E1.59638
G1 X141.112 Y122.980 E0.01676
G1 X105.151 Y87.020 E1.59638
M73 P11 R64
M73 Q10 S64
G1 X104.618 Y87.020 E0.01676
G1 X140.578 Y122.980 E1.59638
M73 Q11 S64
G1 X140.044 Y122.980 E0.01676
G1 X104.084 Y87.020 E1.59638
G1 X103.550 Y87.020 E0.01676
G1 X139.510 Y122.980 E1.59638
G1 X138.976 Y122.980 E0.01676
G1 X103.016 Y87.020 E1.59638
G1 X102.482 Y87.020 E0.01676
G1 X138.442 Y122.980 E1.59638
G1 X137.908 Y122.980 E0.01676
G1 X101.948 Y87.020 E1.59638
G1 X101.414 Y87.020 E0.01676
G1 X137.374 Y122.980 E1.59638
G1 X136.841 Y122.980 E0.01676
G1 X100.880 Y87.020 E1.59638
G1 X100.346 Y87.020 E0.01676
G1 X136.307 Y122.980 E1.59638
G1 X135.773 Y122.980 E0.01676
G1 X99.813 Y87.020 E1.59638
M73 P11 R63
G1 X99.279 Y87.020 E0.01676
G1 X135.239 Y122.980 E1.59638
G1 X134.705 Y122.980 E0.01676
G1 X98.745 Y87.020 E1.59638
G1 X98.211 Y87.020 E0.01676
G1 X134.171 Y122.980 E1.59638
G1 X133.637 Y122.980 E0.01676
G1 X97.677 Y87.020 E1.59638
G1 X97.143 Y87.020 E0.01676
G1 X133.103 Y122.980 E1.59638
G1 X132.569 Y122.980 E0.01676
G1 X96.609 Y87.020 E1.59638
G1 X96.075 Y87.020 E0.01676
G1 X132.036 Y122.980 E1.59638
M73 P12 R63
G1 X131.502 Y122.980 E0.01676
G1 X95.541 Y87.020 E1.59638
M73 Q12 S64
G1 X95.008 Y87.020 E0.01676
G1 X130.968 Y122.980 E1.59638
